assets/icons/ic-flag.svg

<svg width="25" height="24" viewBox="0 0 25 24" fill="none" xmlns="http://www.w3.org/2000/svg">
<path d="M4.83301 21.9977V14.9977" stroke="#37352F" stroke-width="2" stroke-linecap="round" stroke-linejoin="round"/>
<path d="M4.83301 14.9977C4.83301 14.9977 5.83301 13.9977 8.83301 13.9977C11.833 13.9977 13.833 15.9977 16.833 15.9977C19.833 15.9977 20.833 14.9977 20.833 14.9977V2.99768C20.833 2.99768 19.833 3.99768 16.833 3.99768C13.833 3.99768 11.833 1.99768 8.83301 1.99768C5.83301 1.99768 4.83301 2.99768 4.83301 2.99768V14.9977Z" stroke="#37352F" stroke-width="2" stroke-linecap="round" stroke-linejoin="round"/>
</svg>

<svg xmlns="http://www.w3.org/2000/svg" width="25" height="24" fill="none" stroke="#37352f" stroke-width="2" stroke-linejoin="round" xmlns:v="https://vecta.io/nano"><path d="M4.833 21.998v-7" stroke-linecap="round"/><path d="M4.833 14.998s1-1 4-1 5 2 8 2 4-1 4-1v-12s-1 1-4 1-5-2-8-2-4 1-4 1v12z"/></svg>
